X:0
T:Lydian (fa) Scales
M:4/4
L:1/8
K:DbLyd
"^D flat"  DEFG ABcd|dcBA GFED||\
K:AbLyd
"^A flat"  ABcd efga|agfe dcBA||
K:EbLyd
"^E flat"  EFGA Bcde|edcB AGFE||\
K:BbLyd
"^B flat"  Bcde fgab|bagf edcB||
K:FLyd
"^F"       FGAB cdef|fedc BAGF||
K:CLyd
"^C"       CDEF GABc|cBAG FEDC||\
K:GLyd
"^G"       GABc defg|gfed cBAG||
K:DLyd
"^D"       DEFG ABcd|dcBA GFED||\
K:ALyd
"^A"       ABcd efga|agfe dcBA|]


2. Hexatonic Modes
== ===============

2.1. The Hexatonic Pitch Set
==== =======================

Many Scottish tunes don't use all seven notes of the diatonic pitch set.
The same procedure occurs in non-Western musical systems: in classical
Indian music, modes derived by leaving notes out of a raga are called
"secondary ragas".
 
There are many theoretically possible scales like this, but only a few are
used.  The six-note modes of Scottish music can all be seen as different
modes of the white-note pitch set with B (ti) left out, or alternatively
as its transposition down a fourth, the set with F (fa) left out, which
also fits the white notes.  The interval sequence now has a wider gap, a
minor third, written as m:

   -ti:   1  2  3  4  5  6  7  8  9 10 11 12
          C     D     E  F     G     A
         do    re    mi fa    so    la
            T     T    S   T     T      m

or else by leaving F out, which is the same pattern transposed:

   -fa:   1  2  3  4  5  6  7  8  9 10 11 12
          C     D     E        G     A     B
         do    re    mi       so    la    ti
             T     T      m       T     T    S

There are two different ways to get this pitch set on the pipe chanter:
either omit the C sharp (so that the single semitone gap is between
F sharp and G) or omit the G's (so that the semitone falls between C sharp
and D).  Nobody seems to have named these before; I'll call the first
the "C-gap hexatonic pitch set" and the second the "G-gap hexatonic pitch
set".  Pipe tunes using the C-gap set work well on a G whistle.

